X: 1
T: Kincorth Brig
C: Adam Allardyce
R: strathspey
B: MMM2 #__
Z: 2005 John Chambers <jc:trillian.mit.edu>
M: C
L: 1/8
K: A
d \
| "A"c>B A>G "D"F>A "A/c#"A,>C | "Bm"D>F B>A "E7"G<E E>d \
| "A"c>B A>G "D"F>A "A"[EA,]>c | "Bm"(3def "E7"Bcd "A"c<A A>d |
| "A"c>B A>G "D"F>A "A/c#"A,>C | "Bm"D>F B>A "E7"G<E E>c \
| "D"(3def "(E7)"(3Bcd "A"(3cde (3ABc | "E7"(3efe (3dcB "A"c<A A |]
f \
| "A"e>A c>A e>A c>d | "A"e>A B>c "E7"B<[EB,] [EB,]f \
| "A"e>A c>A "D"d>f "A"e>c | "Bm"(3def "E7"Bcd "A"c<A A>f |
| "A"e>A c>A e>A c>d | "A"e>A B>c "E7"B<[EB,] [EB,]c \
| "Bm"(3def "(E7)"(3Bcd "A"(3cde "(F#m)"(3ABc | "E7"(3efe (3dcB "A"c<A A |]
